note-check.svg

<svg fill="currentColor" viewBox="0 0 24 24"><path d="M19 13c.7 0 1.37.13 2 .35V9l-6-6H5c-1.11 0-2 .89-2 2v14a2 2 0 0 0 2 2h8.35c-.22-.63-.35-1.3-.35-2 0-3.31 2.69-6 6-6m-5-8.5 5.5 5.5H14zm8.5 12.75L17.75 22 15 19l1.16-1.16 1.59 1.59 3.59-3.59z"/></svg>

<svg  viewBox="0 0 24 24" fill="currentColor"><path  d="M19 13C19.7 13 20.37 13.13 21 13.35V9L15 3H5C3.89 3 3 3.89 3 5V19C3 20.11 3.9 21 5 21H13.35C13.13 20.37 13 19.7 13 19C13 15.69 15.69 13 19 13M14 4.5L19.5 10H14V4.5M22.5 17.25L17.75 22L15 19L16.16 17.84L17.75 19.43L21.34 15.84L22.5 17.25Z"/></svg>
